Sources/FrostedUI/Resources/Icons.xcassets/cubeSize16.imageset/cube-size-16.svg

<svg
  width="16"
  height="16"
  viewBox="0 0 16 16"
  fill="none"
  xmlns="http://www.w3.org/2000/svg"
  data-fui-icon="true"
>
  <path
    d="M8.00013 8V13.6667M8.00013 8L3 5.18749M8.00013 8L12.8418 5.27649M13.5 5.68604V10.3139C13.5 10.7957 13.2402 11.2399 12.8203 11.4761L8.65367 13.8198C8.2478 14.0481 7.7522 14.0481 7.34633 13.8198L3.17965 11.4761C2.75981 11.2399 2.5 10.7957 2.5 10.3139V5.68604C2.5 5.20435 2.75981 4.7601 3.17965 4.52394L7.34633 2.18019C7.7522 1.95188 8.2478 1.95188 8.65367 2.18019L12.8203 4.52394C13.2402 4.7601 13.5 5.20435 13.5 5.68604Z"
    stroke="currentColor"
    stroke-width="1.5"
    stroke-linecap="round"
    stroke-linejoin="round"
  />
</svg>

<svg xmlns="http://www.w3.org/2000/svg" width="16" height="16" fill="none" data-fui-icon="true" viewBox="0 0 16 16"><path stroke="currentColor" stroke-linecap="round" stroke-linejoin="round" stroke-width="1.5" d="M8 8v5.667M8 8 3 5.187M8 8l4.842-2.724m.658.41v4.628c0 .482-.26.926-.68 1.162L8.654 13.82a1.33 1.33 0 0 1-1.308 0L3.18 11.476c-.42-.236-.68-.68-.68-1.162V5.686c0-.482.26-.926.68-1.162L7.346 2.18a1.33 1.33 0 0 1 1.308 0l4.166 2.344c.42.236.68.68.68 1.162"/></svg>
